X:82
T:Author of All Life
%%stretchlast false
M:4/4
L:1/4
K:Eb clef=C1
E G "^i"[EBe] [EBe] | "^v"[B,Bf]2 "^vi7³"[B,ce] [B,ce] | "^vi7"[CBg] [CBg] "^iii7¹"[B,Gf] "^I²"[B,Ge] | "^vi²"[G,Ec] "^vi"[G,Gc] "^I"[EGe] [EGe] | "^vi7²"[G,Bc]2 "^vi"[B,Bc] "^v"[B,B] | "^vi7"[CBc] "^i"[B,Be] [E,Ee] "^I"[E,Ge] | B2 "^i"[EBe] [EBe] | "^v"[B,cf] [B,cf] "^i"[B,Be]2 | "^vi"[CGg] [CGg] "^i"[B,Ef] "^I²"[B,Ge] | "^vi"[G,Gc]2 "^i"[EBe] [EBe] | "^vi"[G,c] "^vi7²"[G,Bc] "^v"[B,B]2 | "^vi7"[CBc] "^I²"[B,Ge] "^i"[E,Ee]2 | E2 "^I"[EGe] "^vi"[CGg] | [B,cb]2 "^v"[B,Bb]2 | "^vi²"[G,Ec'] "^iii¹"[B,Gb] "^vi"[CGg]2 | "^i"[EBe]2 [EBe] "^I"[EBg] | "^iii¹"[B,Gb]2 "^I²"[B,Ge] "^i"[B,Be] | "^ii"[F,cg]/ [F,cf]/ "^vi7³"[B,ce] "^vi7"[CBc]2 | "^vi¹"[Ecc'] "^i"[EBb] "^vi7"[CBg] "^vi"[CGg] | "^I²"[B,Ge]2 "^vi"[CEg] "^vi+"[CAg] | "^iii7¹"[B,Gf] "^I²"[B,Ge] "^vi7²"[G,Bc]2 | "^vi¹"[Ece] "^i"[EBe] "^vi7²"[G,Bc]2 | "^v"[B,B]2 "^vi"[Cc] "^i"[B,e] | [E,e]4 |]
